X:1
T:Title
%%score { ( 1 3 ) | ( 2 4 ) }
L:1/8
M:3/4
K:G
V:1 treble nm="Grand Piano"
V:3 treble 
V:2 bass 
V:4 bass 
V:1
 z2 z2[Q:1/4=100] [DB]>[DB] | [DB]2 [DB]2 [CA][B,G] | B2 G2 G[GB] | [Gd]3 [GB] [FA]>G | G4 B>B | %5
 e3 B GE | [EG]2 [^DF]2 [DF]>[DF] | [EG]3 [FA] [GB]>[G^c] |[M:5/8] [Fd]-[Fd]- [Fd]3 |[M:1/4] B>B | %10
[M:3/4] B2 G2 [DB]>[DB] | [DB]2 [B,DG]2 B>B | B3 B AB | c4 [Fc]>[Fc] | [Fc]3 [Fc] [FB][DFA] | %15
 [DGd]2 [DGB]2 [DGB][DGB] | [^CGB]3 [CGB] [CGA][CGB] | [DFA]4 B>B | B2 G2 [DB]>[DB] | %19
 [DB]2 [B,DG]2 [DGB]>[DGB] | [DGB]3 [DGB] [CGc][Gd] | [Ge]4 [Ge][Ge] | [Ge]2 [Ge]2 [Ge][Ge] | %23
 [Gd]2 [DGB]2 [B,G][CGc] | [DGB]3 [B,G] [CFA]>[B,DG] |[M:2/4] [B,DG]4 |] %26
V:2
 z2 z2 [G,,G,]>[G,,G,] | [G,,G,]2 [G,,G,]2 [G,,G,][G,,G,] | [G,D]2 [G,B,D]2 [E,B,E][E,B,] | %3
 [D,B,]3 [D,D] [D,C]>[E,B,E] | [E,B,E]4 B,>B, | [E,E]3 B, G,E, | %6
 [B,,B,]2 [B,,B,]2 [B,,B,]>[B,,B,] | [E,B,]3 [D,D] [G,D]>[E,A,] |[M:5/8] A,2 z z2 | %9
[M:1/4][K:treble] [G,DG]>[G,DG] |[M:3/4] [G,DG]2[K:bass] [G,B,D]2 [G,,G,]>[G,,G,] | %11
 [G,,G,]2 G,,2[K:treble] [G,DG]>[G,DG] | [G,DG]3 [G,DG] [F,D][G,DG] | [A,DF]4[K:bass] [D,D]>[D,D] | %14
 [D,D]3 [D,D] [D,D]C, | B,,2 G,,2 G,G, | E,3 E, A,A, | D,4[K:treble] [G,DG]>[G,DG] | %18
 [G,DG]2[K:bass] [G,B,D]2 [G,,G,]>[G,,G,] | [G,,G,]2 G,,2 G,>G, | G,3 =F, E,[D,B,] | %21
 [C,C]4 [C,G,][C,A,] | [^C,_B,]2 [C,B,]2 [C,B,][C,B,] | [D,B,]2 D,2 E,^D, | D,3 D, D,>G, | %25
[M:2/4] G,4 |] %26
V:3
 x6 | x6 | x6 | x6 | x6 | x6 | x6 | x6 |[M:5/8] z2 D3 |[M:1/4] x2 |[M:3/4] x6 | x6 | x6 | x6 | x6 | %15
 x6 | x6 | x6 | x6 | x6 | x6 | x6 | x6 | x6 | x6 |[M:2/4] x4 |] %26
V:4
 x6 | x6 | x6 | x6 | x6 | x6 | x6 | x6 |[M:5/8] D,-D,- D,3 |[M:1/4][K:treble] x2 | %10
[M:3/4] x2[K:bass] x4 | x4[K:treble] x2 | x6 | x4[K:bass] x2 | x6 | x6 | x6 | x4[K:treble] x2 | %18
 x2[K:bass] x4 | x6 | x6 | x6 | x6 | x6 | x6 |[M:2/4] x4 |] %26

